lib/brands/logos/engage.svg

<svg xmlns="http://www.w3.org/2000/svg" fill="none" aria-hidden="true" viewBox="0 0 273 50"><g id="Engage"><g id="Vector"><path fill="black" d="M210.571 28.6017V22.4956H227.504V39.2874C225.217 41.271 222.588 42.8228 219.746 43.867C214.349 45.821 208.88 46.111 203.423 44.2486C196.958 42.0123 192.768 37.5014 191.02 30.9373C189.142 23.9 190.234 17.313 194.875 11.5465C198.42 7.13106 203.137 4.74586 208.781 4.25737C212.979 3.87573 217.097 4.36422 220.971 6.18843C222.162 6.75283 223.296 7.4315 224.356 8.2149C224.974 8.63278 225.555 9.10398 226.092 9.62312L221.65 14.9125C220.887 14.3515 220.165 13.7676 219.402 13.2639C217.8 12.1512 215.994 11.3669 214.087 10.9562C212.18 10.5455 210.211 10.5166 208.293 10.8711C203.713 11.6839 200.527 14.4851 198.782 18.7289C196.638 23.9496 197.046 29.0559 200.278 33.7461C202.542 37.032 205.873 38.6463 209.819 38.9363C213.491 39.2035 216.948 38.4669 220.07 36.4214C220.261 36.2954 220.452 36.1542 220.654 36.0016V28.6017H210.571Z"/><path fill="black" d="M121.876 9.59259L117.388 14.9354C116.048 13.8325 114.716 12.7601 113.114 12.0999C107.836 9.90935 102.714 9.81012 98.146 13.7219C94.5319 16.8131 93.1161 20.9347 93.3222 25.6021C93.4748 29.2161 94.6121 32.4715 97.1881 35.1429C99.4536 37.4778 102.535 38.8455 105.786 38.9592C109.038 39.2111 112.292 38.4854 115.129 36.8755C115.587 36.6122 116.018 36.2992 116.434 36.0283V28.5941H106.355V22.5109H123.242V39.3027C120.256 41.8657 116.711 43.6953 112.892 44.6455C107.786 45.8973 102.726 45.7904 97.856 43.7067C91.8262 41.1612 88.0747 36.5816 86.5902 30.2313C85.1476 24.0603 85.9643 18.187 89.6165 12.9052C93.5549 7.19594 99.1306 4.37567 106.034 4.16577C110.164 4.03602 114.144 4.69624 117.812 6.74179C119.253 7.56171 120.614 8.51623 121.876 9.59259Z"/><path fill="black" d="M5.16504 4.92522H28.4446V11.1535H12.2214V19.8967H23.0674V26.1707H12.21V38.4669H28.4446V44.7066H5.16504V4.92522Z"/><path fill="black" d="M244.586 4.92522H267.835V11.1649H251.635V19.9158H262.507V26.1745H251.639V38.4555H267.831V44.7066H244.586V4.92522Z"/><path fill="black" d="M72.3705 44.7295H48.8391V21.2515L72.3705 44.7295Z"/><path fill="black" d="M66.8063 4.92904V28.3956L43.2863 4.92904H66.8063Z"/><path fill="black" d="M161.325 4.63518H155.013C149.958 18 144.902 31.3571 139.847 44.7066H147.132C148.214 41.5162 149.285 38.3511 150.346 35.2116H165.878C166.98 38.4173 168.073 41.5861 169.156 44.7181H176.518C171.43 31.3253 166.365 17.9643 161.325 4.63518ZM152.365 28.8498L158.112 13.1303L163.863 28.8498H152.365Z"/></g></g></svg>

<svg xmlns="http://www.w3.org/2000/svg" fill="none" aria-hidden="true" viewBox="0 0 273 50"><path fill="#000" d="M210.571 28.602v-6.106h16.933v16.791a25.004 25.004 0 0 1-7.759 4.58c-5.396 1.954-10.865 2.244-16.322.382-6.465-2.237-10.655-6.748-12.403-13.312-1.878-7.037-.786-13.624 3.854-19.39 3.546-4.416 8.263-6.801 13.907-7.29 4.198-.381 8.316.107 12.19 1.931a20.42 20.42 0 0 1 3.385 2.027c.618.418 1.199.889 1.736 1.408l-4.442 5.29c-.763-.562-1.485-1.145-2.248-1.65a14.773 14.773 0 0 0-11.109-2.392c-4.58.813-7.767 3.614-9.511 7.858-2.144 5.22-1.736 10.327 1.496 15.017 2.263 3.286 5.595 4.9 9.541 5.19 3.672.267 7.129-.47 10.251-2.515.191-.126.382-.267.584-.42v-7.4h-10.083ZM121.876 9.593l-4.488 5.342c-1.34-1.103-2.672-2.175-4.274-2.835-5.278-2.19-10.4-2.29-14.968 1.622-3.614 3.091-5.03 7.213-4.824 11.88.153 3.614 1.29 6.87 3.866 9.54a12.594 12.594 0 0 0 8.598 3.817 16.37 16.37 0 0 0 9.343-2.084c.458-.263.889-.576 1.305-.847v-7.434h-10.079v-6.083h16.887v16.792a25.253 25.253 0 0 1-10.35 5.343c-5.106 1.251-10.166 1.144-15.036-.94-6.03-2.545-9.781-7.124-11.266-13.475-1.443-6.17-.626-12.044 3.026-17.326 3.939-5.71 9.514-8.53 16.418-8.74 4.13-.129 8.11.531 11.777 2.577a26.286 26.286 0 0 1 4.065 2.85ZM5.165 4.925h23.28v6.228H12.22v8.744h10.846v6.274H12.21v12.296h16.234v6.24H5.165V4.925Zm239.421 0h23.249v6.24h-16.2v8.75h10.872v6.26h-10.868v12.28h16.192v6.252h-23.245V4.925ZM72.37 44.73H48.84V21.252L72.371 44.73ZM66.806 4.929v23.467L43.286 4.929h23.52Zm94.519-.294h-6.312C149.958 18 144.902 31.357 139.847 44.707h7.285c1.082-3.19 2.153-6.356 3.214-9.495h15.532a4809.49 4809.49 0 0 0 3.278 9.506h7.362a27449.043 27449.043 0 0 1-15.193-40.083Zm-8.961 24.215 5.748-15.72 5.751 15.72h-11.499Z"/></svg>
